x = 63, y = 63, rule = B13/S024
2ob2ob2ob2ob2ob2ob2ob2ob2ob2ob3ob2ob2ob2ob2ob2ob2ob2ob2ob2ob2o$2ob2ob2ob2ob2ob2ob2ob2ob2ob2ob3ob2ob2ob2ob2ob2ob2ob2ob2ob2ob2o$2b3ob2obobobob2ob3o5b3ob3ob3o5b3ob2obobobob2ob3o$3o7b3o7b3ob3o9b3ob3o7b3o7b3o$3ob3o3b2ob2o9b3o9b3o9b2ob2o3b3ob3o$4b3o5b3o5b3o17b3o5b3o5b3o$3ob2ob2o5b2ob2ob3ob3o3b3o3b3ob3ob2ob2o5b2ob2ob3o$3o3b3o3b2obob2o5b3o3b3o3b3o5b2obob2o3b3o3b3o$6b3o13b2ob2ob2obob2ob2ob2o13b3o$3o9b2obob2o3b3o3b3ob3o3b3o3b2obob2o9b3o$2ob2o7b2obobobob2o3b2ob2ob2ob2o3b2obobobob2o7b2ob2o$2b3o13b2obob2ob3o5b3ob2obob2o13b3o$2obobobob2o5b2obobob2o13b2obobob2o5b2obobobob2o$3ob2obob2o5b3o7b3o5b3o7b3o5b2obob2ob3o$4b3o9b3o9b3ob3o9b3o9b3o$3o3b2ob2o15b2ob2ob2ob2o15b2ob2o3b3o$3o9b3o7b2ob2ob2obob2ob2ob2o7b3o9b3o$6b2ob2ob3o7b2obob2ob3ob2obob2o7b3ob2ob2o$3o3b2obobob2o5b3o3b3ob3ob3o3b3o5b2obobob2o3b3o$3o7b3o7b2obob2o9b2obob2o7b3o7b3o$2b2ob2o11b3o21b3o11b2ob2o$2obob2o3b3o5b2obobob2o9b2obobob2o5b3o3b2obob2o$2obob2ob3o5b3o3b2ob2o9b2ob2o3b3o5b3ob2obob2o$8b2ob2o3b2obob2o17b2obob2o3b2ob2o$2ob2ob2obob2o11b3o9b3o11b2obob2ob2ob2o$2ob2ob3o7b2obob2ob3o9b3ob2obob2o7b3ob2ob2o$2b3ob3ob2obob2ob2ob2ob3o9b3ob2ob2ob2obob2ob3ob3o$3o7b2obobob2o25b2obobob2o7b3o$3o5b2obob2ob3o9b3ob3o9b3ob2obob2o5b3o$8b3o3b3o11b3ob3o11b3o3b3o$3o3b2ob2o3b2ob2o9b3ob3o9b2ob2o3b2ob2o3b3o$3o3b3o7b3o25b3o7b3o3b3o$3o3b2ob2o3b2ob2o9b3ob3o9b2ob2o3b2ob2o3b3o$8b3o3b3o11b3ob3o11b3o3b3o$3o5b2obob2ob3o9b3ob3o9b3ob2obob2o5b3o$3o7b2obobob2o25b2obobob2o7b3o$2b3ob3ob2obob2ob2ob2ob3o9b3ob2ob2ob2obob2ob3ob3o$2ob2ob3o7b2obob2ob3o9b3ob2obob2o7b3ob2ob2o$2ob2ob2obob2o11b3o9b3o11b2obob2ob2ob2o$8b2ob2o3b2obob2o17b2obob2o3b2ob2o$2obob2ob3o5b3o3b2ob2o9b2ob2o3b3o5b3ob2obob2o$2obob2o3b3o5b2obobob2o9b2obobob2o5b3o3b2obob2o$2b2ob2o11b3o21b3o11b2ob2o$3o7b3o7b2obob2o9b2obob2o7b3o7b3o$3o3b2obobob2o5b3o3b3ob3ob3o3b3o5b2obobob2o3b3o$6b2ob2ob3o7b2obob2ob3ob2obob2o7b3ob2ob2o$3o9b3o7b2ob2ob2obob2ob2ob2o7b3o9b3o$3o3b2ob2o15b2ob2ob2ob2o15b2ob2o3b3o$4b3o9b3o9b3ob3o9b3o9b3o$3ob2obob2o5b3o7b3o5b3o7b3o5b2obob2ob3o$2obobobob2o5b2obobob2o13b2obobob2o5b2obobobob2o$2b3o13b2obob2ob3o5b3ob2obob2o13b3o$2ob2o7b2obobobob2o3b2ob2ob2ob2o3b2obobobob2o7b2ob2o$3o9b2obob2o3b3o3b3ob3o3b3o3b2obob2o9b3o$6b3o13b2ob2ob2obob2ob2ob2o13b3o$3o3b3o3b2obob2o5b3o3b3o3b3o5b2obob2o3b3o3b3o$3ob2ob2o5b2ob2ob3ob3o3b3o3b3ob3ob2ob2o5b2ob2ob3o$4b3o5b3o5b3o17b3o5b3o5b3o$3ob3o3b2ob2o9b3o9b3o9b2ob2o3b3ob3o$3o7b3o7b3ob3o9b3ob3o7b3o7b3o$2b3ob2obobobob2ob3o5b3ob3ob3o5b3ob2obobobob2ob3o$2ob2ob2ob2ob2ob2ob2ob2ob2ob2ob3ob2ob2ob2ob2ob2ob2ob2ob2ob2ob2o$2ob2ob2ob2ob2ob2ob2ob2ob2ob2ob3ob2ob2ob2ob2ob2ob2ob2ob2ob2ob2o!
