x = 487, y = 594, rule = B3/S23
257b2o$256bobo$242bo12b3o4b2ob3o$242b4o8b3o4bo2b4o$232b2o9b4o8b3o4b2o$232b2o9bo2bo9bobo$237bo5b4o10b2o$237bo4b4o8bo$242bo12bo$253b3o$$$$$$$237b2o$235bo3bo5bo2b3o$229b2o3bo5bo9bo3bo$229b2o2b2obo3bo8bo4bobo$234bo5bo16b2o$235bo3bo17b2o$237b2o18b2o10bo$254bobo5b2o6bo$254bo7bobo3b3o$264bo$264b2o$$$$$$$$$$$284bo$285bo$283b3o28b2o$314b2o$$$$$314bo$312b2ob2o$$311bo5bo$$311b2obob2o$$299bo$290bo9bo15bo$290b3o5b3o12bo2bo$293bo22bo$292b2o18b2o$312bo$294b3o15bobo$294b3o16b2o$293bo3bo$292bo5bo$293bo3bo15b2o3b2o$294b3o4b2o10bo5bo$301b2o3bo$306bobo5bo3bo$306b2o7b3o$$295bobo$294bo2bo$292bob2o$312bo5b2o$295bo17b2o3bo$292b2obo16b2o5b3o$294bo26bo$$$294b2o3b2o$295b5o$295b2ob2o$295b2ob2o$296b3o$$$$$279bo47bo$278bo17b2o30b2o$278b3o15b2o29b2o$$$$$$$$$$$$$264bo77bo$263bo79b2o$263b3o76b2o$$$$$$$$$$$$$249bo107bo$248bo109b2o$248b3o106b2o$$$$$$$$$$$$$234bo137bo$233bo139b2o$233b3o136b2o$$$$$$$$$$$$$219bo167bo$218bo169b2o$218b3o166b2o$$$$$$$$$$$$$204bo197bo$203bo199b2o$203b3o196b2o$$$$$$$$$$$$$189bo227bo$188bo229b2o$188b3o226b2o$$$$$$$$$$$$$174bo257bo$173bo107bobo149b2o$173b3o103bo3bo148b2o$271bo7bo12b2o$270b4o4bo4bo8b2o$258b2o9b2obobo4bo$258b2o8b3obo2bo3bo3bo$269b2obobo6bobo$270b4o$271bo$282bo$280bobo$281b2o$$$159bo287bo$158bo117b2o170b2o$158b3o103b2o9bobo169b2o$264b3o10bo$255b2o9b2obo11bo$255bo5bo4bo2bo10b2o$260bo5b2obo9b2o4b2o$256bo3bo3b3o11b3o4b2o$258bo5b2o13b2o4b2o$280b2o6b2o$281bo6bobo6bo$290bo4bobo$290b2o4b2o$$$144bo317bo$143bo319b2o$143b3o316b2o$$$$$$$$312bo27b2o140bo$310bobo27b2o138b3o$311b2o166bo$479b2o$340bo$129bo209b3o$128bo209bo3bo129bo$128b3o209bo130bo$337bo5bo127b3o$337bo5bo132b3o$338bo3bo132bo3bo$339b3o$474bo5bo$474b2o3b2o$316bo$316b3o8bo$319bo5bobo10bo138bo$318b2o6b2o148bobo$476bobo$338bo137bo$114bo223bobo135bo$113bo224b2o117bo18bo2bo$113b3o340bo20b2o$318b2o3b2o131b3o$318bo5bo2b2o$327b2o10b2o3b2o$319bo3bo7bo$320b3o7bo9bo3bo$330b3o8b3o$341b3o$$$344b2o$344bo$318bo20bobo3b3o$99bo218bobo19b2o5bo$98bo219b2o20bo101bo$98b3o340bo$323bo117b3o$322b3o$321b5o$320b2o3b2o$321b5o$321bo3bo$322bobo$323bo$$$322b2o$303bo18b2o30bobo$84bo218bobo49b2o$83bo219b2o50bo71bo$83b3o340bo$426b3o$$$$$$$467b2o$467b2o$$481b2o$288bo80bobo109b2o$69bo218bobo79b2o$68bo219b2o80bo41bo$68b3o340bo$411b3o$$481bo$480b3o$465b5o10b3o$464bob3obo$465bo3bo8b2o3b2o$466b3o9b2o3b2o$467bo$$481b2o$273bo110bobo93bobo$54bo218bobo109b2o78bo13b2o2bo$53bo219b2o110bo11bo67bo14b2o$53b3o340bo67bobo5bo7b2o$396b3o64b2ob2o2bobo7bo$462bo5bo2b2o$465bo14bo5bo$462b2o3b2o11bo5bo$475b2o4bo3bo$475b2o5b3o$$$$$462b2o$258bo204bo3bo$39bo218bobo199b3o3bo$38bo219b2o200bo5b3o$38b3o441b2o$482b2o$$$$$311b2o$311b2o$$297b2o$297b2o$$243bo208bo$24bo218bobo205bo$23bo219b2o206b3o$23b3o$298bo$297b3o$297b3o10b5o$309bob3obo$295b2o3b2o8bo3bo$295b2o3b2o9b3o$312bo$$297b2o49bo$297bobo48b3o$296bo2b2o13bo36bo$228bo69b2o14bo35b2o85bo$o8bo218bobo67b2o7bo5bobo120bo$3o5bo219b2o69bo7bobo2b2ob2o119b3o$3bo4b3o296b2o2bo5bo$2b2o289bo5bo14bo$293bo5bo11b2o3b2o35bo$5bo288bo3bo4b2o47b3o$4b3o288b3o5b2o47b3o$3bo3bo$5bo344b2o3b2o$2bo5bo341b2o3b2o$2bo5bo$3bo3bo308b2o$4b3o305bo3bo36bo$313bo3b3o32bobo$213bo97b3o5bo34b2o66bo$213bobo80b2o56b2o65bo$213b2o81b2o55b3o65b3o$19bobo330bobo$20b2o330b2o$20bo$$4b2o$4b2o$$$$$327bo$328bo$198bo127b3o78bo$198bobo205bo$198b2o206b3o$34bobo$35b2o$35bo$$$$$$$$342bo$343bo$183bo157b3o48bo$183bobo205bo$183b2o206b3o$49bobo$50b2o$50bo$$$$$$$$357bo$358bo$168bo187b3o18bo$168bobo205bo$168b2o206b3o$64bobo89bo$65b2o89b3o$65bo93bo$158b2o$$$$$$$161bo$160b3o$159b5o$158b2o3b2o7bo$173b2o$79bobo90b2o$80b2o$80bo79b3o214b2o$160b3o214bo$378b3o$380bo$160b2o$160b2o$$$$$$187bo$188b2o$94bobo90b2o$95b2o$95bo$$$$$$$$$$$202bo$203b2o$109bobo90b2o$110b2o$110bo$$$$$$$261b2o$261b2o$$275b2o$217bo41bo15b2o$218b2o40bo$124bobo90b2o41bo$125b2o$125bo$258b2o3b2o$261bo$258bo5bo$259b2ob2o$260bobo11b3o$261bo11bo3bo$261bo10bo5bo$272bo5bo$275bo$273bo3bo$232bo41b3o$233b2o40bo$139bobo90b2o29bobo$140b2o122b2o$140bo117b3o3bo11b3o$257bo3bo14b3o$256bo5bo12bo3bo$256b2obob2o$269b2o3b2o3b2o$269b2o$259bo$258bobo$258bobo$257b3o$256b2o5bo$247bo9bo3b2o$248b2o4b3o5b2o$154bobo90b2o5bo$155b2o120b2o$155bo121b2o$$$$$$$$$$$$$169bobo$170b2o$170bo$$$$$$$$$$$$$184bobo$185b2o$185bo$$$$$$$$$$$$$199bobo$200b2o$200bo$$$$$$$$$$$$201b2o$202bo11bobo$199b3o13b2o$199bo15bo$$$$$$$$$$$$$229bobo$230b2o$230bo$$$$$236b2o$236bo$237b3o$239bo!
