x = 168, y = 168, rule = B/S012345678
56o32b16o8b56o$56o32b16o8b56o$56o32b16o8b56o$56o32b16o8b56o$56o32b16o8b56o$56o32b16o8b56o$56o32b16o8b56o$56o32b16o8b56o$8o40b8o24b8o8b8o8b8o40b8o$8o40b8o24b8o8b8o8b8o40b8o$8o40b8o24b8o8b8o8b8o40b8o$8o40b8o24b8o8b8o8b8o40b8o$8o40b8o24b8o8b8o8b8o40b8o$8o40b8o24b8o8b8o8b8o40b8o$8o40b8o24b8o8b8o8b8o40b8o$8o40b8o24b8o8b8o8b8o40b8o$8o8b24o8b8o24b8o8b8o8b8o8b24o8b8o$8o8b24o8b8o24b8o8b8o8b8o8b24o8b8o$8o8b24o8b8o24b8o8b8o8b8o8b24o8b8o$8o8b24o8b8o24b8o8b8o8b8o8b24o8b8o$8o8b24o8b8o24b8o8b8o8b8o8b24o8b8o$8o8b24o8b8o24b8o8b8o8b8o8b24o8b8o$8o8b24o8b8o24b8o8b8o8b8o8b24o8b8o$8o8b24o8b8o24b8o8b8o8b8o8b24o8b8o$8o8b24o8b8o8b8o8b8o8b8o8b8o8b24o8b8o$8o8b24o8b8o8b8o8b8o8b8o8b8o8b24o8b8o$8o8b24o8b8o8b8o8b8o8b8o8b8o8b24o8b8o$8o8b24o8b8o8b8o8b8o8b8o8b8o8b24o8b8o$8o8b24o8b8o8b8o8b8o8b8o8b8o8b24o8b8o$8o8b24o8b8o8b8o8b8o8b8o8b8o8b24o8b8o$8o8b24o8b8o8b8o8b8o8b8o8b8o8b24o8b8o$8o8b24o8b8o8b8o8b8o8b8o8b8o8b24o8b8o$8o8b24o8b8o8b16o8b8o16b8o8b24o8b8o$8o8b24o8b8o8b16o8b8o16b8o8b24o8b8o$8o8b24o8b8o8b16o8b8o16b8o8b24o8b8o$8o8b24o8b8o8b16o8b8o16b8o8b24o8b8o$8o8b24o8b8o8b16o8b8o16b8o8b24o8b8o$8o8b24o8b8o8b16o8b8o16b8o8b24o8b8o$8o8b24o8b8o8b16o8b8o16b8o8b24o8b8o$8o8b24o8b8o8b16o8b8o16b8o8b24o8b8o$8o40b8o16b8o16b8o8b8o40b8o$8o40b8o16b8o16b8o8b8o40b8o$8o40b8o16b8o16b8o8b8o40b8o$8o40b8o16b8o16b8o8b8o40b8o$8o40b8o16b8o16b8o8b8o40b8o$8o40b8o16b8o16b8o8b8o40b8o$8o40b8o16b8o16b8o8b8o40b8o$8o40b8o16b8o16b8o8b8o40b8o$56o8b8o8b8o8b8o8b56o$56o8b8o8b8o8b8o8b56o$56o8b8o8b8o8b8o8b56o$56o8b8o8b8o8b8o8b56o$56o8b8o8b8o8b8o8b56o$56o8b8o8b8o8b8o8b56o$56o8b8o8b8o8b8o8b56o$56o8b8o8b8o8b8o8b56o$88b8o$88b8o$88b8o$88b8o$88b8o$88b8o$88b8o$88b8o$16o24b24o32b8o24b16o$16o24b24o32b8o24b16o$16o24b24o32b8o24b16o$16o24b24o32b8o24b16o$16o24b24o32b8o24b16o$16o24b24o32b8o24b16o$16o24b24o32b8o24b16o$16o24b24o32b8o24b16o$8o8b32o8b8o32b8o8b56o$8o8b32o8b8o32b8o8b56o$8o8b32o8b8o32b8o8b56o$8o8b32o8b8o32b8o8b56o$8o8b32o8b8o32b8o8b56o$8o8b32o8b8o32b8o8b56o$8o8b32o8b8o32b8o8b56o$8o8b32o8b8o32b8o8b56o$8o8b8o16b16o16b24o16b8o24b24o$8o8b8o16b16o16b24o16b8o24b24o$8o8b8o16b16o16b24o16b8o24b24o$8o8b8o16b16o16b24o16b8o24b24o$8o8b8o16b16o16b24o16b8o24b24o$8o8b8o16b16o16b24o16b8o24b24o$8o8b8o16b16o16b24o16b8o24b24o$8o8b8o16b16o16b24o16b8o24b24o$16o8b8o8b8o32b16o32b8o$16o8b8o8b8o32b16o32b8o$16o8b8o8b8o32b16o32b8o$16o8b8o8b8o32b16o32b8o$16o8b8o8b8o32b16o32b8o$16o8b8o8b8o32b16o32b8o$16o8b8o8b8o32b16o32b8o$16o8b8o8b8o32b16o32b8o$16b24o8b16o24b32o8b8o8b24o$16b24o8b16o24b32o8b8o8b24o$16b24o8b16o24b32o8b8o8b24o$16b24o8b16o24b32o8b8o8b24o$16b24o8b16o24b32o8b8o8b24o$16b24o8b16o24b32o8b8o8b24o$16b24o8b16o24b32o8b8o8b24o$16b24o8b16o24b32o8b8o8b24o$64b16o16b16o16b8o8b8o$64b16o16b16o16b8o8b8o$64b16o16b16o16b8o8b8o$64b16o16b16o16b8o8b8o$64b16o16b16o16b8o8b8o$64b16o16b16o16b8o8b8o$64b16o16b16o16b8o8b8o$64b16o16b16o16b8o8b8o$56o8b24o8b24o32b8o$56o8b24o8b24o32b8o$56o8b24o8b24o32b8o$56o8b24o8b24o32b8o$56o8b24o8b24o32b8o$56o8b24o8b24o32b8o$56o8b24o8b24o32b8o$56o8b24o8b24o32b8o$8o40b8o8b8o8b8o32b8o16b8o$8o40b8o8b8o8b8o32b8o16b8o$8o40b8o8b8o8b8o32b8o16b8o$8o40b8o8b8o8b8o32b8o16b8o$8o40b8o8b8o8b8o32b8o16b8o$8o40b8o8b8o8b8o32b8o16b8o$8o40b8o8b8o8b8o32b8o16b8o$8o40b8o8b8o8b8o32b8o16b8o$8o8b24o8b8o16b16o8b16o32b8o8b8o$8o8b24o8b8o16b16o8b16o32b8o8b8o$8o8b24o8b8o16b16o8b16o32b8o8b8o$8o8b24o8b8o16b16o8b16o32b8o8b8o$8o8b24o8b8o16b16o8b16o32b8o8b8o$8o8b24o8b8o16b16o8b16o32b8o8b8o$8o8b24o8b8o16b16o8b16o32b8o8b8o$8o8b24o8b8o16b16o8b16o32b8o8b8o$8o8b24o8b8o16b40o8b40o$8o8b24o8b8o16b40o8b40o$8o8b24o8b8o16b40o8b40o$8o8b24o8b8o16b40o8b40o$8o8b24o8b8o16b40o8b40o$8o8b24o8b8o16b40o8b40o$8o8b24o8b8o16b40o8b40o$8o8b24o8b8o16b40o8b40o$8o8b24o8b8o40b16o24b8o8b16o$8o8b24o8b8o40b16o24b8o8b16o$8o8b24o8b8o40b16o24b8o8b16o$8o8b24o8b8o40b16o24b8o8b16o$8o8b24o8b8o40b16o24b8o8b16o$8o8b24o8b8o40b16o24b8o8b16o$8o8b24o8b8o40b16o24b8o8b16o$8o8b24o8b8o40b16o24b8o8b16o$8o40b8o8b16o8b8o8b16o8b16o8b16o$8o40b8o8b16o8b8o8b16o8b16o8b16o$8o40b8o8b16o8b8o8b16o8b16o8b16o$8o40b8o8b16o8b8o8b16o8b16o8b16o$8o40b8o8b16o8b8o8b16o8b16o8b16o$8o40b8o8b16o8b8o8b16o8b16o8b16o$8o40b8o8b16o8b8o8b16o8b16o8b16o$8o40b8o8b16o8b8o8b16o8b16o8b16o$56o8b8o16b32o24b16o$56o8b8o16b32o24b16o$56o8b8o16b32o24b16o$56o8b8o16b32o24b16o$56o8b8o16b32o24b16o$56o8b8o16b32o24b16o$56o8b8o16b32o24b16o$56o8b8o16b32o24b16o!
