x = 106, y = 22, rule = B/S0123456789
5b4o3b5o4b5o2b4o4b6o2b6o3b5o2b2o2b2o2b2o2b2o6b2o2b2o2b2o6bo4bo$4b6o2b6o2b6o2b5o3b6o2b6o2b6o2b2o2b2o2b2o2b2o6b2o2b2o2b2o6b2o2b2o$4b2o2b2o2b2o2b2o2b2o6b2o2b2o2b2o6b2o6b2o6b2o2b2o2b2o2b2o6b2o2b2o2b2o6b6o$4b2o2b2o2b2o2b2o2b2o6b2o2b2o2b2o6b2o6b2o6b2o2b2o2b2o2b2o6b2o2b2o2b2o6b6o$4b6o2b6o2b2o6b2o2b2o2b6o2b6o2b2o2b2o2b6o2b2o2b2o6b4o4b2o6b2o2b2o$4b6o2b6o2b2o6b2o2b2o2b6o2b6o2b2o2b2o2b6o2b2o2b2o6b4o4b2o6b2o2b2o$4b2o2b2o2b2o2b2o2b2o6b2o2b2o2b2o6b2o6b2o2b2o2b2o2b2o2b2o2b2o2b2o2b2o2b2o2b2o6b2o2b2o$4b2o2b2o2b2o2b2o2b2o6b2o2b2o2b2o6b2o6b2o2b2o2b2o2b2o2b2o2b2o2b2o2b2o2b2o2b2o6b2o2b2o$4b2o2b2o2b6o2b6o2b5o3b6o2b2o6b6o2b2o2b2o2b2o2b6o2b2o2b2o2b6o2b2o2b2o$4b2o2b2o2b5o4b5o2b4o4b6o2b2o7b4o3b2o2b2o2b2o3b4o3b2o2b2o2b6o2b2o2b2o$$$2o2b2o3b4o3b5o4b4o3b5o4b5o2b6o2b2o2b2o2b2o2b2o2b2o2b2o2b2o2b2o2b2o2b2o2b2o2b6o$2o2b2o2b6o2b6o2b6o2b6o2b6o2b6o2b2o2b2o2b2o2b2o2b2o2b2o2b2o2b2o2b2o2b2o2b2o2b6o$3ob2o2b2o2b2o2b2o2b2o2b2o2b2o2b2o2b2o2b2o8b2o4b2o2b2o2b2o2b2o2b2o2b2o2b2o2b2o2b2o2b2o2b2o6b2o$3ob2o2b2o2b2o2b2o2b2o2b2o2b2o2b2o2b2o2b2o8b2o4b2o2b2o2b2o2b2o2b2o2b2o2b2o2b2o2b2o2b2o2b2o6b2o$6o2b2o2b2o2b6o2b2o2b2o2b6o2b5o5b2o4b2o2b2o2b2o2b2o2b2o2b2o2b2o4b2o6b2o6b2o$6o2b2o2b2o2b5o3b2o2b2o2b5o4b5o4b2o4b2o2b2o2b2o2b2o2b2o2b2o2b2o4b2o6b2o6b2o$2ob3o2b2o2b2o2b2o6b2o2b2o2b4o8b2o4b2o4b2o2b2o2b2o2b2o2b2o2b2o2b2o2b2o2b2o4b2o4b2o$2ob3o2b2o2b2o2b2o6b2o2b2o2b2ob2o7b2o4b2o4b2o2b2o2b2o2b2o2b2o2b2o2b2o2b2o2b2o4b2o4b2o$2o2b2o2b6o2b2o6b5o3b2o2b2o2b6o4b2o4b6o4b2o6b2o2b2o4b2o2b2o4b2o4b6o$2o2b2o3b4o3b2o7b3obo2b2o2b2o2b5o5b2o5b4o5b2o6b2o2b2o4b2o2b2o4b2o4b6o!
