x = 232, y = 232, rule = B/S012345678
56o16b8o32b8o8b40o8b56o$56o16b8o32b8o8b40o8b56o$56o16b8o32b8o8b40o8b56o$56o16b8o32b8o8b40o8b56o$56o16b8o32b8o8b40o8b56o$56o16b8o32b8o8b40o8b56o$56o16b8o32b8o8b40o8b56o$56o16b8o32b8o8b40o8b56o$8o40b8o8b16o8b40o32b8o8b8o40b8o$8o40b8o8b16o8b40o32b8o8b8o40b8o$8o40b8o8b16o8b40o32b8o8b8o40b8o$8o40b8o8b16o8b40o32b8o8b8o40b8o$8o40b8o8b16o8b40o32b8o8b8o40b8o$8o40b8o8b16o8b40o32b8o8b8o40b8o$8o40b8o8b16o8b40o32b8o8b8o40b8o$8o40b8o8b16o8b40o32b8o8b8o40b8o$8o8b24o8b8o16b24o16b24o16b16o8b8o8b24o8b8o$8o8b24o8b8o16b24o16b24o16b16o8b8o8b24o8b8o$8o8b24o8b8o16b24o16b24o16b16o8b8o8b24o8b8o$8o8b24o8b8o16b24o16b24o16b16o8b8o8b24o8b8o$8o8b24o8b8o16b24o16b24o16b16o8b8o8b24o8b8o$8o8b24o8b8o16b24o16b24o16b16o8b8o8b24o8b8o$8o8b24o8b8o16b24o16b24o16b16o8b8o8b24o8b8o$8o8b24o8b8o16b24o16b24o16b16o8b8o8b24o8b8o$8o8b24o8b8o8b16o8b8o8b8o8b40o16b8o8b24o8b8o$8o8b24o8b8o8b16o8b8o8b8o8b40o16b8o8b24o8b8o$8o8b24o8b8o8b16o8b8o8b8o8b40o16b8o8b24o8b8o$8o8b24o8b8o8b16o8b8o8b8o8b40o16b8o8b24o8b8o$8o8b24o8b8o8b16o8b8o8b8o8b40o16b8o8b24o8b8o$8o8b24o8b8o8b16o8b8o8b8o8b40o16b8o8b24o8b8o$8o8b24o8b8o8b16o8b8o8b8o8b40o16b8o8b24o8b8o$8o8b24o8b8o8b16o8b8o8b8o8b40o16b8o8b24o8b8o$8o8b24o8b8o24b8o8b24o16b32o8b8o8b24o8b8o$8o8b24o8b8o24b8o8b24o16b32o8b8o8b24o8b8o$8o8b24o8b8o24b8o8b24o16b32o8b8o8b24o8b8o$8o8b24o8b8o24b8o8b24o16b32o8b8o8b24o8b8o$8o8b24o8b8o24b8o8b24o16b32o8b8o8b24o8b8o$8o8b24o8b8o24b8o8b24o16b32o8b8o8b24o8b8o$8o8b24o8b8o24b8o8b24o16b32o8b8o8b24o8b8o$8o8b24o8b8o24b8o8b24o16b32o8b8o8b24o8b8o$8o40b8o8b8o8b8o32b24o16b8o8b8o40b8o$8o40b8o8b8o8b8o32b24o16b8o8b8o40b8o$8o40b8o8b8o8b8o32b24o16b8o8b8o40b8o$8o40b8o8b8o8b8o32b24o16b8o8b8o40b8o$8o40b8o8b8o8b8o32b24o16b8o8b8o40b8o$8o40b8o8b8o8b8o32b24o16b8o8b8o40b8o$8o40b8o8b8o8b8o32b24o16b8o8b8o40b8o$8o40b8o8b8o8b8o32b24o16b8o8b8o40b8o$56o8b8o8b8o8b8o8b8o8b8o8b8o8b8o8b56o$56o8b8o8b8o8b8o8b8o8b8o8b8o8b8o8b56o$56o8b8o8b8o8b8o8b8o8b8o8b8o8b8o8b56o$56o8b8o8b8o8b8o8b8o8b8o8b8o8b8o8b56o$56o8b8o8b8o8b8o8b8o8b8o8b8o8b8o8b56o$56o8b8o8b8o8b8o8b8o8b8o8b8o8b8o8b56o$56o8b8o8b8o8b8o8b8o8b8o8b8o8b8o8b56o$56o8b8o8b8o8b8o8b8o8b8o8b8o8b8o8b56o$96b8o8b8o8b8o16b8o$96b8o8b8o8b8o16b8o$96b8o8b8o8b8o16b8o$96b8o8b8o8b8o16b8o$96b8o8b8o8b8o16b8o$96b8o8b8o8b8o16b8o$96b8o8b8o8b8o16b8o$96b8o8b8o8b8o16b8o$40o8b40o8b8o8b32o24b8o8b8o8b8o8b8o$40o8b40o8b8o8b32o24b8o8b8o8b8o8b8o$40o8b40o8b8o8b32o24b8o8b8o8b8o8b8o$40o8b40o8b8o8b32o24b8o8b8o8b8o8b8o$40o8b40o8b8o8b32o24b8o8b8o8b8o8b8o$40o8b40o8b8o8b32o24b8o8b8o8b8o8b8o$40o8b40o8b8o8b32o24b8o8b8o8b8o8b8o$40o8b40o8b8o8b32o24b8o8b8o8b8o8b8o$16b8o8b16o8b8o8b8o32b8o8b8o16b16o8b24o24b8o$16b8o8b16o8b8o8b8o32b8o8b8o16b16o8b24o24b8o$16b8o8b16o8b8o8b8o32b8o8b8o16b16o8b24o24b8o$16b8o8b16o8b8o8b8o32b8o8b8o16b16o8b24o24b8o$16b8o8b16o8b8o8b8o32b8o8b8o16b16o8b24o24b8o$16b8o8b16o8b8o8b8o32b8o8b8o16b16o8b24o24b8o$16b8o8b16o8b8o8b8o32b8o8b8o16b16o8b24o24b8o$16b8o8b16o8b8o8b8o32b8o8b8o16b16o8b24o24b8o$8b8o16b24o16b8o8b56o24b16o$8b8o16b24o16b8o8b56o24b16o$8b8o16b24o16b8o8b56o24b16o$8b8o16b24o16b8o8b56o24b16o$8b8o16b24o16b8o8b56o24b16o$8b8o16b24o16b8o8b56o24b16o$8b8o16b24o16b8o8b56o24b16o$8b8o16b24o16b8o8b56o24b16o$8o64b24o16b16o24b16o16b8o8b8o8b8o$8o64b24o16b16o24b16o16b8o8b8o8b8o$8o64b24o16b16o24b16o16b8o8b8o8b8o$8o64b24o16b16o24b16o16b8o8b8o8b8o$8o64b24o16b16o24b16o16b8o8b8o8b8o$8o64b24o16b16o24b16o16b8o8b8o8b8o$8o64b24o16b16o24b16o16b8o8b8o8b8o$8o64b24o16b16o24b16o16b8o8b8o8b8o$8b24o8b16o16b8o8b8o8b40o8b8o40b16o$8b24o8b16o16b8o8b8o8b40o8b8o40b16o$8b24o8b16o16b8o8b8o8b40o8b8o40b16o$8b24o8b16o16b8o8b8o8b40o8b8o40b16o$8b24o8b16o16b8o8b8o8b40o8b8o40b16o$8b24o8b16o16b8o8b8o8b40o8b8o40b16o$8b24o8b16o16b8o8b8o8b40o8b8o40b16o$8b24o8b16o16b8o8b8o8b40o8b8o40b16o$8b16o8b8o32b16o8b8o16b16o8b16o8b16o8b8o$8b16o8b8o32b16o8b8o16b16o8b16o8b16o8b8o$8b16o8b8o32b16o8b8o16b16o8b16o8b16o8b8o$8b16o8b8o32b16o8b8o16b16o8b16o8b16o8b8o$8b16o8b8o32b16o8b8o16b16o8b16o8b16o8b8o$8b16o8b8o32b16o8b8o16b16o8b16o8b16o8b8o$8b16o8b8o32b16o8b8o16b16o8b16o8b16o8b8o$8b16o8b8o32b16o8b8o16b16o8b16o8b16o8b8o$8b24o8b24o40b24o16b8o8b8o8b16o8b16o$8b24o8b24o40b24o16b8o8b8o8b16o8b16o$8b24o8b24o40b24o16b8o8b8o8b16o8b16o$8b24o8b24o40b24o16b8o8b8o8b16o8b16o$8b24o8b24o40b24o16b8o8b8o8b16o8b16o$8b24o8b24o40b24o16b8o8b8o8b16o8b16o$8b24o8b24o40b24o16b8o8b8o8b16o8b16o$8b24o8b24o40b24o16b8o8b8o8b16o8b16o$16o8b16o24b8o24b8o8b24o24b8o8b24o16b8o$16o8b16o24b8o24b8o8b24o24b8o8b24o16b8o$16o8b16o24b8o24b8o8b24o24b8o8b24o16b8o$16o8b16o24b8o24b8o8b24o24b8o8b24o16b8o$16o8b16o24b8o24b8o8b24o24b8o8b24o16b8o$16o8b16o24b8o24b8o8b24o24b8o8b24o16b8o$16o8b16o24b8o24b8o8b24o24b8o8b24o16b8o$16o8b16o24b8o24b8o8b24o24b8o8b24o16b8o$32b24o8b24o8b8o8b16o8b8o40b8o8b16o$32b24o8b24o8b8o8b16o8b8o40b8o8b16o$32b24o8b24o8b8o8b16o8b8o40b8o8b16o$32b24o8b24o8b8o8b16o8b8o40b8o8b16o$32b24o8b24o8b8o8b16o8b8o40b8o8b16o$32b24o8b24o8b8o8b16o8b8o40b8o8b16o$32b24o8b24o8b8o8b16o8b8o40b8o8b16o$32b24o8b24o8b8o8b16o8b8o40b8o8b16o$8o8b16o32b8o8b8o16b16o8b8o16b16o8b24o8b8o$8o8b16o32b8o8b8o16b16o8b8o16b16o8b24o8b8o$8o8b16o32b8o8b8o16b16o8b8o16b16o8b24o8b8o$8o8b16o32b8o8b8o16b16o8b8o16b16o8b24o8b8o$8o8b16o32b8o8b8o16b16o8b8o16b16o8b24o8b8o$8o8b16o32b8o8b8o16b16o8b8o16b16o8b24o8b8o$8o8b16o32b8o8b8o16b16o8b8o16b16o8b24o8b8o$8o8b16o32b8o8b8o16b16o8b8o16b16o8b24o8b8o$8o16b8o16b8o8b40o16b16o48b8o16b8o$8o16b8o16b8o8b40o16b16o48b8o16b8o$8o16b8o16b8o8b40o16b16o48b8o16b8o$8o16b8o16b8o8b40o16b16o48b8o16b8o$8o16b8o16b8o8b40o16b16o48b8o16b8o$8o16b8o16b8o8b40o16b16o48b8o16b8o$8o16b8o16b8o8b40o16b16o48b8o16b8o$8o16b8o16b8o8b40o16b16o48b8o16b8o$8o24b8o24b16o8b8o24b16o8b16o24b16o16b8o$8o24b8o24b16o8b8o24b16o8b16o24b16o16b8o$8o24b8o24b16o8b8o24b16o8b16o24b16o16b8o$8o24b8o24b16o8b8o24b16o8b16o24b16o16b8o$8o24b8o24b16o8b8o24b16o8b16o24b16o16b8o$8o24b8o24b16o8b8o24b16o8b16o24b16o16b8o$8o24b8o24b16o8b8o24b16o8b16o24b16o16b8o$8o24b8o24b16o8b8o24b16o8b16o24b16o16b8o$8o24b8o8b8o8b8o16b8o8b16o8b16o16b40o8b24o$8o24b8o8b8o8b8o16b8o8b16o8b16o16b40o8b24o$8o24b8o8b8o8b8o16b8o8b16o8b16o16b40o8b24o$8o24b8o8b8o8b8o16b8o8b16o8b16o16b40o8b24o$8o24b8o8b8o8b8o16b8o8b16o8b16o16b40o8b24o$8o24b8o8b8o8b8o16b8o8b16o8b16o16b40o8b24o$8o24b8o8b8o8b8o16b8o8b16o8b16o16b40o8b24o$8o24b8o8b8o8b8o16b8o8b16o8b16o16b40o8b24o$64b24o8b8o40b8o8b8o24b40o$64b24o8b8o40b8o8b8o24b40o$64b24o8b8o40b8o8b8o24b40o$64b24o8b8o40b8o8b8o24b40o$64b24o8b8o40b8o8b8o24b40o$64b24o8b8o40b8o8b8o24b40o$64b24o8b8o40b8o8b8o24b40o$64b24o8b8o40b8o8b8o24b40o$56o8b8o8b8o16b8o8b8o8b32o8b8o8b24o$56o8b8o8b8o16b8o8b8o8b32o8b8o8b24o$56o8b8o8b8o16b8o8b8o8b32o8b8o8b24o$56o8b8o8b8o16b8o8b8o8b32o8b8o8b24o$56o8b8o8b8o16b8o8b8o8b32o8b8o8b24o$56o8b8o8b8o16b8o8b8o8b32o8b8o8b24o$56o8b8o8b8o16b8o8b8o8b32o8b8o8b24o$56o8b8o8b8o16b8o8b8o8b32o8b8o8b24o$8o40b8o24b8o8b8o8b8o8b8o16b16o24b8o24b8o$8o40b8o24b8o8b8o8b8o8b8o16b16o24b8o24b8o$8o40b8o24b8o8b8o8b8o8b8o16b16o24b8o24b8o$8o40b8o24b8o8b8o8b8o8b8o16b16o24b8o24b8o$8o40b8o24b8o8b8o8b8o8b8o16b16o24b8o24b8o$8o40b8o24b8o8b8o8b8o8b8o16b16o24b8o24b8o$8o40b8o24b8o8b8o8b8o8b8o16b16o24b8o24b8o$8o40b8o24b8o8b8o8b8o8b8o16b16o24b8o24b8o$8o8b24o8b8o8b8o8b8o8b8o8b32o16b40o8b24o$8o8b24o8b8o8b8o8b8o8b8o8b32o16b40o8b24o$8o8b24o8b8o8b8o8b8o8b8o8b32o16b40o8b24o$8o8b24o8b8o8b8o8b8o8b8o8b32o16b40o8b24o$8o8b24o8b8o8b8o8b8o8b8o8b32o16b40o8b24o$8o8b24o8b8o8b8o8b8o8b8o8b32o16b40o8b24o$8o8b24o8b8o8b8o8b8o8b8o8b32o16b40o8b24o$8o8b24o8b8o8b8o8b8o8b8o8b32o16b40o8b24o$8o8b24o8b8o8b16o32b8o8b32o24b8o8b32o$8o8b24o8b8o8b16o32b8o8b32o24b8o8b32o$8o8b24o8b8o8b16o32b8o8b32o24b8o8b32o$8o8b24o8b8o8b16o32b8o8b32o24b8o8b32o$8o8b24o8b8o8b16o32b8o8b32o24b8o8b32o$8o8b24o8b8o8b16o32b8o8b32o24b8o8b32o$8o8b24o8b8o8b16o32b8o8b32o24b8o8b32o$8o8b24o8b8o8b16o32b8o8b32o24b8o8b32o$8o8b24o8b8o8b16o8b16o16b16o8b16o16b48o$8o8b24o8b8o8b16o8b16o16b16o8b16o16b48o$8o8b24o8b8o8b16o8b16o16b16o8b16o16b48o$8o8b24o8b8o8b16o8b16o16b16o8b16o16b48o$8o8b24o8b8o8b16o8b16o16b16o8b16o16b48o$8o8b24o8b8o8b16o8b16o16b16o8b16o16b48o$8o8b24o8b8o8b16o8b16o16b16o8b16o16b48o$8o8b24o8b8o8b16o8b16o16b16o8b16o16b48o$8o40b8o8b8o16b8o16b8o8b8o8b24o16b8o8b8o8b8o$8o40b8o8b8o16b8o16b8o8b8o8b24o16b8o8b8o8b8o$8o40b8o8b8o16b8o16b8o8b8o8b24o16b8o8b8o8b8o$8o40b8o8b8o16b8o16b8o8b8o8b24o16b8o8b8o8b8o$8o40b8o8b8o16b8o16b8o8b8o8b24o16b8o8b8o8b8o$8o40b8o8b8o16b8o16b8o8b8o8b24o16b8o8b8o8b8o$8o40b8o8b8o16b8o16b8o8b8o8b24o16b8o8b8o8b8o$8o40b8o8b8o16b8o16b8o8b8o8b24o16b8o8b8o8b8o$56o8b16o8b16o24b32o8b8o8b32o$56o8b16o8b16o24b32o8b8o8b32o$56o8b16o8b16o24b32o8b8o8b32o$56o8b16o8b16o24b32o8b8o8b32o$56o8b16o8b16o24b32o8b8o8b32o$56o8b16o8b16o24b32o8b8o8b32o$56o8b16o8b16o24b32o8b8o8b32o$56o8b16o8b16o24b32o8b8o8b32o!
