x = 83, y = 112, rule = B3/S23
18b2o$18b2o$$4b2o$4b2o$$5bo13bo$4bobo10b2ob2o$4bobo$5bo10bo5bo$$16b2obob2o$2b2obob2o$2bo5bo$3bo3bo13bo$4b3o11bo2bo$21bo$17b2o$17bo$17bobo$18b2o$$7bo$8bo9b2o3b2o$6b3o9bo5bo$$19bo3bo$20b3o$$b5o$ob3obo$bo3bo57b2o$2b3o58b2o$3bo19b2o$23bo53b2o$24b3o50b2o$26bo$2b2o18bo40bo13bo$2b2o19bo37b2ob2o10bobo$21b3o52bobo$60bo5bo10bo$$60b2obob2o$74b2obob2o$74bo5bo$61bo13bo3bo$61bo2bo11b3o$61bo$64b2o$65bo$63bobo$63b2o$$75bo$58b2o3b2o9bo$38b2o18bo5bo9b3o$38bo$39b3o17bo3bo$41bo18b3o$$77b5o$76bob3obo$77bo3bo$78b3o$58b2o19bo$59bo$56b3o$56bo$60bo18b2o$59bo19b2o$59b3o$$$$$$$$$$$38bo$38b3o$41bo$40b2o$44bobo$45b2o$45bo$$$$$40b2o3b2o$41b5o$41b2ob2o$41b2ob2o$42b3o$$$$59bobo$60b2o$42b2o16bo$42b2o$$$$$68b2o$68bobo$70bo$70b2o!
