x = 151, y = 176, rule = B3/S23
73b2o$73b2o$$59b2o$59b2o$$$$$$71b2obob2o$$18b2o39b3o9bo5bo$18b2o38bo3bo$57bo5bo8b2ob2o$4b2o51b2obob2o10bo$4b2o$$60bo$59bobo$59bobo$59b2o10bo$16b2obob2o35bo10b2o4b3o$57b3o10b2o2bo3bo$4b3o9bo5bo33bo3bo$3bo3bo47bob3obo11bo5bo$2bo5bo8b2ob2o34b5o4bo7b2o3b2o$2b2obob2o10bo46b2o$65b2o$76bo$5bo69bo$4bobo68bo$4bobo$4b2o10bo61b2o$3bo10b2o4b3o55bo$2b3o10b2o2bo3bo55b3o$bo3bo75bo$ob3obo11bo5bo32b2o$b5o4bo7b2o3b2o32b2o$11b2o$10b2o$21bo58bo$20bo60b2o$20bo59b2o$131b2o$23b2o106b2o$23bo$24b3o118b2o$26bo118b2o$2b2o$2b2o$$$25bo$26b2o100b2obob2o$25b2o$95bo32bo5bo9b3o$96b2o45bo3bo$95b2o32b2ob2o8bo5bo$131bo10b2obob2o$$$145bo$144bobo$144bobo$134bo10b2o$128b3o4b2o10bo$127bo3bo2b2o10b3o$40bo104bo3bo$41b2o83bo5bo11bob3obo$40b2o84b2o3b2o7bo4b5o$110bo27b2o$111b2o26b2o$110b2o17bo$130bo$130bo$$126b2o$127bo$124b3o$124bo$147b2o$147b2o$55bo$56b2o$55b2o$$$$$$$$$$$$$70bo$71b2o$70b2o$$46b2o$46b2o$$32b2o$32b2o$$$$$$44b2obob2o$85bo$32b3o9bo5bo35b2o$31bo3bo49b2o$30bo5bo8b2ob2o$30b2obob2o10bo$$$33bo$32bobo$32bobo59b2o$32b2o10bo49bobo$31bo10b2o4b3o45bo$30b3o10b2o2bo3bo44b2o$29bo3bo$28bob3obo11bo5bo$29b5o4bo7b2o3b2o$39b2o$38b2o$49bo$48bo$48bo$$51b2o$51bo$52b3o$54bo$30b2o$30b2o$$$53bo$54b2o$53b2o$$$$$$$$$$$$$68bo$69b2o$68b2o$$$$$$$$$$$$82b2o$82bobo$84bo$84b2o!
