x = 151, y = 141, rule = B3/S23
73b2o$73b2o$$59b2o$59b2o12b3o$73b3o$$$$71b2o3b2o$72b5o$73b3o$18b2o54bo$18b2o37b2obob2o$$4b2o51bo5bo$4b2o12b3o$18b3o37b2ob2o$60bo$73bo$71b2o$16b2o3b2o49b2o$17b5o$18b3o$19bo43bo$2b2obob2o48b3o4b2o$56bo3bo2b2o8b2o3b2o$2bo5bo66b3o$55bo5bo12bo3bo$3b2ob2o47b2o3b2o13bobo$5bo70bo$18bo$16b2o40bo$17b2o38bobo18b2o$57bobo18bo$59bo19b3o$8bo50bo21bo$2b3o4b2o45bo2bo$bo3bo2b2o8b2o3b2o32b2o$20b3o55bo$o5bo12bo3bo55b2o$2o3b2o13bobo55b2o$21bo$$3bo127b2o$2bobo18b2o106b2o$2bobo18bo$4bo19b3o118b2o$4bo21bo103b3o12b2o$bo2bo125b3o$2b2o$23bo$24b2o$23b2o103b2o3b2o$93bo35b5o$94b2o34b3o$93b2o36bo$142b2obob2o$$142bo5bo$$143b2ob2o$145bo$132bo$133b2o$132b2o$38bo$39b2o$38b2o102bo$108bo31b2o4b3o$109b2o15b2o3b2o8b2o2bo3bo$108b2o18b3o$127bo3bo12bo5bo$128bobo13b2o3b2o$129bo$$147bo$126b2o18bobo$127bo18bobo$124b3o19bo$124bo21bo$53bo92bo2bo$54b2o91b2o$53b2o$125bobo$$$$$$$$$$$$68bo$69b2o$68b2o$$$$$$$$$$$$$83bo$84b2o$83b2o$$$$$$$$$$$$84b2o$83bobo12bo$83bo15b2o$82b2o14b2o$$$$$$$$$109b2o$109bobo$111bo$111b2o!
