x = 194, y = 127, rule = B3/S23
134b2o$65b2o67b2o$65b2o$148b2o$51b2o95b2o$51b2o15bo$67bo66bo$67bo66bo1
3bo$133bobo11b3o$132b2ob2o9bo3bo$63b2o3b2o61bo5bo10bo$66bo67bo10bo5bo$
63bo5bo61b2o3b2o7bo5bo$64b2ob2o77bo3bo$51b3o11bobo79b3o$50bo3bo11bo65b
4o$49bo5bo10bo65bo2b2o$49bo5bo77bob2o$52bo$50bo3bo79b2o$51b3o81bo$52bo
$62bobo$62b2o65b2obob2o$49b3o11bo3b3o59bo5bo$49b3o14bo3bo59bo3bo$48bo3
bo12bo5bo59b3o$65b2obob2o$47b2o3b2o3b2o88b2o3b2o$57b2o$68bo79bo3bo$67b
obo79b3o$67bobo79b3o$68b3o58b2o$70b2o58bo$70bo56b3o$71b3o53bo$73bo75b2
o$50b2o97b2o$50b2o$$$$174b2o$174b2o$$188b2o$188b2o$$174bo$174bo13bo$17
3bobo11b3o$172b2ob2o9bo3bo$171bo5bo10bo$174bo10bo5bo$171b2o3b2o7bo5bo$
186bo3bo$187b3o$172b4o$172bo2b2o$173bob2o$$174b2o$175bo$$$169b2obob2o$
169bo5bo$170bo3bo$171b3o$$187b2o3b2o$$188bo3bo$189b3o$189b3o$169b2o$17
0bo$167b3o$167bo$189b2o$189b2o$$$$$18b2o$18b2o$$4b2o$4b2o$$19bo$5bo13b
o$4b3o11bobo$3bo3bo9b2ob2o$5bo10bo5bo$2bo5bo10bo$2bo5bo7b2o3b2o$3bo3bo
$4b3o$18b4o$17b2o2bo$17b2obo$55bo$18b2o35b3o$18bo39bo$57b2o$$18b2obob2
o35bo$18bo5bo34b3o$19bo3bo34bo3bo$20b3o37bo$57bo5bo$2o3b2o50bo5bo$58bo
3bo$bo3bo53b3o$2b3o$2b3o$23b2o$23bo$24b3o$26bo$3b2o$3b2o$59b2o$59b2o!